X:1
T:Skyeman's Jig 
T:Harmony 1
C:Duncan Johnstone
L:1/8
R:Jig
M:6/8
K:D
[|: {g}A{d}A{e}A {gef}e2 d | {g}efg {ef}e2 d | {gBd}B2 {e}G {g}G{d}G{e}G | {g}dB{d}G {gBd}B2 e |
{g}A{d}A{e}A {gef}e2 d | {g}efg {ef}e2 d | {gef}e2 d {gf}g2 G | {g}B{d}A{e}A {GAG}A2 e :|]
[| a2{GdG}a {f}g2 e | {g}edg {ef}e2 d | {gBd}B2 {e}G {g}G{d}G{e}G | {g}dB{d}G {gBd}B2 e |
 a2{GdG}a {f}g2 e | {g}edg {ef}e2 d | {gef}e2 d {gf}g2 G | {g}B{d}A{e}A {g}Ade |
 {g}f3 (e3 | (e3) e3) | {gf}(g3 (g3) | (g3) g3) |
 (e3 (e3) | (e3) e3)  [M:9/8] | {gf}(g3 g3) {a}ga{g}a [M:3/4] "Slow Air Tempo" | {g}a4 d<e|]

